public/assets/images/search.svg

<svg fill="none" height="12" viewBox="0 0 12 12" width="12" xmlns="http://www.w3.org/2000/svg"><path d="m11.8063 10.8713-3.29945-3.29926c.59764-.79199.95657-1.77409.95657-2.84058 0-2.6087-2.12202-4.73146-4.73171-4.73146-2.60883 0-4.73171 2.12276-4.73171 4.73146 0 2.60955 2.12288 4.73146 4.73171 4.73146 1.06655 0 2.0487-.35891 2.84073-.95653l3.29936 3.29921c.1288.1288.2984.1944.4673.1944.1688 0 .3376-.0648.4672-.1944.2583-.2583.2583-.676 0-.9343zm-10.868484-6.13984c0-2.09207 1.702564-3.793693 3.793894-3.793693 2.09218 0 3.79389 1.702473 3.79389 3.793693s-1.70171 3.79369-3.79389 3.79369-3.793894-1.70162-3.793894-3.79369z" fill="#fff"/></svg>

<svg
          className="cursor-pointer"
          width="12"
          height="12"
          viewBox="0 0 12 12"
          fill="none"
          xmlns="http://www.w3.org/2000/svg"
        >
          <path
            d="M11.8063 10.8713L8.50685 7.57204C9.10449 6.78005 9.46342 5.79795 9.46342 4.73146C9.46342 2.12276 7.3414 0 4.73171 0C2.12288 0 0 2.12276 0 4.73146C0 7.34101 2.12288 9.46292 4.73171 9.46292C5.79826 9.46292 6.78041 9.10401 7.57244 8.50639L10.8718 11.8056C11.0006 11.9344 11.1702 12 11.3391 12C11.5079 12 11.6767 11.9352 11.8063 11.8056C12.0646 11.5473 12.0646 11.1296 11.8063 10.8713ZM0.937816 4.73146C0.937816 2.63939 2.64038 0.937767 4.73171 0.937767C6.82389 0.937767 8.5256 2.64024 8.5256 4.73146C8.5256 6.82268 6.82389 8.52515 4.73171 8.52515C2.63953 8.52515 0.937816 6.82353 0.937816 4.73146Z"
            fill="white"
            fillOpacity="0.8"
          />
        </svg>
